src/images/platforms/mummy.svg

<svg width="38" height="36" viewBox="0 0 38 36" fill="none" xmlns="http://www.w3.org/2000/svg">
<path d="M6.985 22.1472L7.17219 22.5669L12.6291 24.5304L24.4825 24.2553L30.3116 23.0083L30.5873 22.4143L30.7709 22.1472L31.7041 19.2031L31.4938 17.519L29.5181 15.4793L17.4869 15.3821L11.0422 14.1185L8.33787 14.2646L7.38244 14.8147L7.2694 15.4793L6.2002 17.8754V20.0779" fill="#131223"/>
<path d="M13.0225 33.624C13.0225 33.624 13.5661 34.3138 14.2199 34.519C14.8737 34.7242 15.7441 34.5312 16.8321 35.3052C17.92 36.0792 18.8538 36 18.8538 36C18.8538 36 19.7862 36.0842 20.8749 35.3102C21.9635 34.5362 22.834 34.7299 23.487 34.524C24.1401 34.3181 24.6844 33.624 24.6844 33.624C24.6844 33.624 22.8196 32.3424 18.8524 32.3424C14.8852 32.3424 13.0225 33.624 13.0225 33.624Z" fill="#03F5AE"/>
<path d="M31.4599 14.8658C31.4599 14.8658 32.1252 16.3173 31.956 17.3693C31.956 17.3693 31.3764 15.3533 30.6801 14.8745L31.0466 13.9493L30.7082 13.7073C25.9562 10.8273 18.8541 10.9274 18.8541 10.9274C25.7345 10.3226 30.5937 12.5409 30.5937 12.5409L30.9984 10.877L29.7521 10.2722C29.7521 10.2722 29.8068 9.08493 29.6009 8.64933C29.4792 8.39229 29.1264 8.13957 28.8571 7.97541C26.2687 6.83997 21.8162 6.59661 21.8162 6.59661C25.7805 6.23013 27.7526 6.47493 28.5432 6.63909C28.4049 5.80389 28.0514 4.57125 27.1529 4.38189C26.5661 4.25805 26.1809 4.29189 25.8057 4.41717C25.643 4.22853 25.1304 3.67917 24.5364 3.49269C23.8164 3.26517 22.8516 3.47901 21.6485 2.62365C20.4453 1.76829 19.4165 1.86117 19.4165 1.86117C19.4165 1.86117 18.3854 1.76829 17.1845 2.62365C15.9835 3.47901 15.0187 3.26517 14.2973 3.49269C13.5758 3.72021 12.9739 4.48125 12.9739 4.48125C12.9739 4.48125 14.4233 5.47701 17.4746 5.79885C16.3478 5.73765 14.7487 5.87085 13.7933 5.53245C12.1574 4.95213 11.891 4.37181 10.5122 4.66197C9.50416 4.87797 9.26368 5.66421 9.1636 6.46773C11.6117 6.02781 13.0106 6.59661 13.0106 6.59661C9.49552 6.97173 8.30536 7.92213 8.23408 7.98189C8.14128 8.06504 8.064 8.16402 8.00584 8.27421C7.89136 8.51613 7.97992 8.60469 8.00008 9.07989C12.8846 7.59597 16.7841 8.62701 16.7841 8.62701C13.2237 8.70981 9.89584 9.32829 6.70984 10.8749L7.17856 12.5143C10.1069 11.4566 11.7528 12.2076 11.7528 12.2076C10.0033 12.6282 8.31686 13.2778 6.7372 14.1393L7.03744 14.904C6.35848 15.4253 5.79976 17.3714 5.79976 17.3714C5.63056 16.3195 6.29584 14.868 6.29584 14.868C4.91704 14.9529 4.39648 16.259 4.39648 17.3477C4.39648 18.4363 5.09848 19.6697 5.9452 20.4681C6.79192 21.2666 6.98416 22.1472 6.98416 22.1472C7.62568 20.3925 6.37936 20.2478 6.71848 18.1677C7.0576 16.0877 9.56104 14.976 9.56104 14.976C9.04718 14.8632 8.52568 14.7886 8.0008 14.7528C9.0808 14.5915 9.83249 12.8628 16.5048 17.1965C23.177 21.5301 27.3091 17.1468 29.5224 15.8198C30.1805 16.3577 30.8702 17.1468 31.0344 18.1692C31.3735 20.2493 30.1272 20.394 30.7687 22.1486C30.7687 22.1486 30.9617 21.2652 31.8084 20.4674C32.6551 19.6697 33.3571 18.4356 33.3571 17.3469C33.3571 16.2583 32.8387 14.9508 31.4599 14.8658Z" fill="#03F5AE"/>
<path d="M35.0644 11.9074C33.6316 11.1046 31.2801 10.9505 31.2801 10.9505L30.9014 12.6483C33.2651 13.6239 34.577 16.2799 34.577 16.2799C34.577 16.2799 34.6821 16.0085 35.189 15.4109C35.7412 14.7629 37.5153 14.2027 37.5153 14.2027C37.5153 14.2027 36.305 12.6 35.0644 11.9074Z" fill="#03F5AE"/>
<path d="M31.2749 32.6491C31.3167 32.135 31.3937 31.9601 31.3937 31.9601C30.4034 31.8242 29.4349 31.5606 28.5123 31.176C27.7203 31.3401 25.7835 31.2991 21.8163 30.9319C21.8163 30.9319 26.3725 31.0629 28.9609 29.9239C29.2301 29.7597 29.5829 29.507 29.7046 29.25C29.9105 28.8144 29.7529 27.2549 29.7529 27.2549L30.9992 26.6493L30.5938 24.984C30.5938 24.984 25.7345 27.203 18.8578 26.5975C18.8578 26.5975 25.9613 26.6983 30.7119 23.8176L31.0503 23.5757L30.5909 22.4143C25.6568 24.4303 12.0581 24.4303 7.12401 22.4143L6.74097 23.3834C8.32031 24.2452 10.0064 24.8947 11.7557 25.3152C11.7557 25.3152 10.2517 25.5931 7.19889 24.8277L6.71289 26.6479C9.89889 28.1952 13.2267 28.8137 16.7871 28.8965C16.7871 28.8965 12.8357 29.8533 7.95201 28.3694C7.93185 28.8453 7.89369 29.0073 8.00745 29.2485C8.06539 29.3591 8.1427 29.4583 8.23569 29.5416C8.30769 29.6006 9.49713 30.5496 13.0121 30.9269C13.0121 30.9269 11.6794 31.6735 9.23361 31.2329C9.33369 32.0371 9.54825 32.9292 10.5569 33.1416C11.9365 33.4296 12.2021 32.8536 13.8351 32.2704C15.4681 31.6872 18.8542 31.68 18.8542 31.68C18.8542 31.68 22.2418 31.6922 23.8741 32.2725C25.5063 32.8529 25.7727 33.4339 27.1522 33.1437C27.2778 33.1169 27.399 33.0726 27.5122 33.012C27.8413 33.2813 28.7557 33.9847 29.5894 34.2201C30.4894 34.4736 31.7955 34.2921 31.7955 34.2921C31.7955 34.2921 31.2289 33.2078 31.2749 32.6491Z" fill="#03F5AE"/>
<path d="M5.77584 20.7302C3.41496 21.7116 0.60912 20.7605 0.60912 20.7605C0.60912 20.7605 0.72648 21.024 0.792 21.8081C0.864 22.6577 0 24.3079 0 24.3079C0 24.3079 1.98648 24.5837 3.35592 24.1977C4.93992 23.7521 6.70896 22.1983 6.70896 22.1983L5.77584 20.7302Z" fill="#03F5AE"/>
<path d="M12.8243 4.32936L13.6746 3.48048C12.6594 2.03472 12.8826 0 12.8826 0C12.8826 0 12.7206 0.11952 12.2037 0.27936C11.6406 0.4536 10.3994 0.12096 10.3994 0.12096C10.3994 0.12096 10.511 1.50192 10.9754 2.36808C11.511 3.36744 12.8243 4.32936 12.8243 4.32936Z" fill="#03F5AE"/>
<path fill-rule="evenodd" clip-rule="evenodd" d="M11.4863 18.3838C11.4863 18.3838 10.8555 19.8958 12.0903 20.5035C13.3251 21.1111 16.4291 20.803 16.4291 20.803C16.4291 20.803 13.7384 18.8201 11.4863 18.3838Z" fill="white"/>
<path fill-rule="evenodd" clip-rule="evenodd" d="M26.8614 19.939C26.8614 19.939 27.1033 21.1968 26.0636 21.4632C25.0239 21.7296 22.7012 21.0039 22.7012 21.0039C22.7012 21.0039 25.0707 19.9152 26.8614 19.939Z" fill="white"/>
</svg>

<svg xmlns="http://www.w3.org/2000/svg" width="38" height="36" fill="none"><path fill="#131223" d="m6.985 22.147.187.42 5.457 1.963 11.854-.275 5.829-1.247.275-.594.184-.267.933-2.944-.21-1.684-1.976-2.04-12.031-.097-6.445-1.264-2.704.147-.956.55-.113.664L6.2 17.875v2.203"/><path fill="#03F5AE" d="M13.023 33.624s.543.69 1.197.895 1.524.012 2.612.786 2.022.695 2.022.695.932.084 2.02-.69c1.09-.774 1.96-.58 2.613-.786s1.197-.9 1.197-.9-1.864-1.282-5.832-1.282-5.83 1.282-5.83 1.282M31.46 14.866s.665 1.451.496 2.503c0 0-.58-2.016-1.276-2.495l.367-.925-.339-.242c-4.752-2.88-11.854-2.78-11.854-2.78 6.88-.604 11.74 1.614 11.74 1.614l.404-1.664-1.246-.605s.055-1.187-.151-1.623c-.122-.257-.475-.51-.744-.674-2.588-1.135-7.04-1.378-7.04-1.378 3.964-.367 5.936-.122 6.726.042-.138-.835-.492-2.068-1.39-2.257-.587-.124-.972-.09-1.347.035-.163-.188-.676-.738-1.27-.924-.72-.228-1.684-.014-2.888-.87-1.203-.855-2.232-.762-2.232-.762s-1.03-.093-2.232.763c-1.2.855-2.165.641-2.887.869-.721.227-1.323.988-1.323.988s1.45.996 4.5 1.318c-1.126-.061-2.725.072-3.68-.267-1.637-.58-1.903-1.16-3.282-.87-1.008.216-1.248 1.002-1.348 1.806 2.448-.44 3.847.129 3.847.129-3.515.375-4.706 1.325-4.777 1.385q-.14.126-.228.292c-.115.242-.026.33-.006.806 4.885-1.484 8.784-.453 8.784-.453-3.56.083-6.888.701-10.074 2.248l.469 1.64c2.928-1.058 4.574-.307 4.574-.307-1.75.42-3.436 1.07-5.016 1.931l.3.765c-.679.521-1.237 2.467-1.237 2.467-.17-1.051.496-2.503.496-2.503-1.379.085-1.9 1.391-1.9 2.48s.702 2.322 1.55 3.12c.846.799 1.038 1.68 1.038 1.68.642-1.756-.605-1.9-.266-3.98.34-2.08 2.843-3.192 2.843-3.192a11 11 0 0 0-1.56-.223c1.08-.162 1.831-1.89 8.504 2.444 6.672 4.333 10.804-.05 13.017-1.377.659.538 1.348 1.327 1.512 2.35.34 2.08-.907 2.224-.265 3.979 0 0 .193-.884 1.04-1.682.846-.797 1.548-2.031 1.548-3.12s-.518-2.396-1.897-2.481"/><path fill="#03F5AE" d="M35.064 11.907c-1.432-.802-3.784-.957-3.784-.957l-.379 1.698c2.364.976 3.676 3.632 3.676 3.632s.105-.271.612-.87c.552-.647 2.326-1.207 2.326-1.207s-1.21-1.603-2.45-2.296M31.275 32.65c.042-.515.119-.69.119-.69a11.6 11.6 0 0 1-2.882-.784c-.792.164-2.729.123-6.696-.244 0 0 4.557.13 7.145-1.008.27-.164.622-.417.744-.674.206-.436.048-1.995.048-1.995l1.246-.606-.405-1.665s-4.86 2.219-11.736 1.613c0 0 7.103.101 11.854-2.78l.338-.241-.46-1.162c-4.933 2.016-18.532 2.016-23.466 0l-.383.97a20.5 20.5 0 0 0 5.015 1.931s-1.504.278-4.557-.487l-.486 1.82c3.186 1.547 6.514 2.166 10.074 2.249 0 0-3.951.956-8.835-.528-.02.476-.058.638.055.88q.088.167.229.293c.072.059 1.261 1.008 4.776 1.385 0 0-1.333.747-3.778.306.1.804.314 1.696 1.323 1.909 1.38.288 1.645-.288 3.278-.872 1.633-.583 5.02-.59 5.02-.59s3.387.012 5.02.593c1.631.58 1.898 1.16 3.277.87q.19-.04.36-.131c.33.27 1.244.973 2.077 1.208.9.254 2.207.072 2.207.072s-.567-1.084-.521-1.643M5.776 20.73c-2.361.982-5.167.03-5.167.03s.117.264.183 1.048c.072.85-.792 2.5-.792 2.5s1.986.276 3.356-.11c1.584-.446 3.353-2 3.353-2zM12.824 4.33l.85-.85C12.66 2.035 12.884 0 12.884 0s-.162.12-.68.28C11.642.453 10.4.12 10.4.12s.112 1.38.576 2.247c.536 1 1.85 1.961 1.85 1.961"/><path fill="#fff" fill-rule="evenodd" d="M11.486 18.384s-.63 1.512.604 2.12c1.235.607 4.34.299 4.34.299s-2.692-1.983-4.944-2.42M26.861 19.939s.242 1.258-.797 1.524c-1.04.267-3.363-.46-3.363-.46s2.37-1.088 4.16-1.064" clip-rule="evenodd"/></svg>
